X: 1230
T: Augathella Station
C:Trad
B: australian traditional tunes wiki
M:3/4
L:1/8
R: Waltz
Q: 1/4=100
K:G
V:1 
B2|e2e2f2 | e4ef | g2f2e2 | _e2B2B2 | e2e2f2 | e4ef | g2a2g2 | f4f2 | 
g2f2g2 | a2g2a2 | b2g2e2 | _e2B2ba | g2e2e2 | _e2B2A2 | B2e2_e2 | e4:|
% abcbook-tune_id 6342d53af6c9306fc081c8d6


% abcbook-boost 0
% abcbook-tablature 
% abcbook-transpose 
% abcbook-lastupdated 1665324355059
% abcbook-soundfonts 
% abcbook-repeats 1
% NFF Book 2022
% Bush Traditions recording played by Ray Mulligan

